!!!COM:	de Orto, Marbrianus
!!!CDT:	~1460///-1529//
!!!OTL:	Si j'ay perdu mon amy
!!!AGN:	Song; Chanson
!!!SCT:	Ort3008
!!!SCA:	Ort3008
!!!voices:	4
**kern	**text	**kern	**text	**kern	**text	**kern	**text
*staff4	*staff4	*staff3	*staff3	*staff2	*staff2	*staff1	*staff1
*Ivox	*	*Ivox	*	*Ivox	*	*Ivox	*
*I"Bassus	*	*I"Tenor	*	*I"Altus	*	*I"Superius	*
*I'B	*	*I'T	*	*I'A	*	*I'S	*
*clefF4	*	*clefGv2	*	*clefGv2	*	*clefG2	*
*k[b-]	*	*k[b-]	*	*k[b-]	*	*k[b-]	*
*M2/1	*	*M2/1	*	*M2/1	*	*M2/1	*
*met(C|)	*	*met(C|)	*	*met(C|)	*	*met(C|)	*
=1-	=1-	=1-	=1-	=1-	=1-	=1-	=1-
1D	Se	0r	.	0r	.	0r	.
1D	je	.	.	.	.	.	.
=2	=2	=2	=2	=2	=2	=2	=2
1C	per-	0r	.	0r	.	0r	.
[1F	-du	.	.	.	.	.	.
=3	=3	=3	=3	=3	=3	=3	=3
2F\]	.	1G	Se	0r	.	0r	.
4E\	mon	.	.	.	.	.	.
4D\	.	.	.	.	.	.	.
1E	a-	1G	je	.	.	.	.
=4	=4	=4	=4	=4	=4	=4	=4
2.F\	-my,	1F	per-	0r	.	0r	.
4E\	.	.	.	.	.	.	.
4D\	.	[1B-	-du	.	.	.	.
4C/	.	.	.	.	.	.	.
[2E-i\	mon	.	.	.	.	.	.
=5	=5	=5	=5	=5	=5	=5	=5
4E-\]	.	2B-\]	.	0r	.	0r	.
4D\	.	.	.	.	.	.	.
4C/	.	4A/	mon	.	.	.	.
4BB-/	.	4G/	.	.	.	.	.
1C	a-	1A	a-	.	.	.	.
=6	=6	=6	=6	=6	=6	=6	=6
0BB-	-my,	1B-	-my,	1d	Se	0r	.
.	.	2r	.	1d	je	.	.
.	.	[2B-\	Se	.	.	.	.
=7	=7	=7	=7	=7	=7	=7	=7
1F	.	2B-\]	.	1c	per-	0r	.
.	.	2A/	je	.	.	.	.
1BB-	.	4B-\	per-	[1f	-du	.	.
.	.	4A/	.	.	.	.	.
.	.	4G/	.	.	.	.	.
.	.	4F/	.	.	.	.	.
=8	=8	=8	=8	=8	=8	=8	=8
0r	.	1c	-du	2f\]	.	1g	Se
.	.	.	.	4e\	mon	.	.
.	.	.	.	4d\	.	.	.
.	.	1c	mon	1e	a-	1g	je
=9	=9	=9	=9	=9	=9	=9	=9
0BB-	a-	1.d	a-	[0f	-my,	1f	per-
.	.	.	.	.	.	[1b-	-du
.	.	2B-\	.	.	.	.	.
=10	=10	=10	=10	=10	=10	=10	=10
0F	-my,	0c	-my,	0f]	.	2b-\]	.
.	.	.	.	.	.	4a/	mon
.	.	.	.	.	.	4g/	.
.	.	.	.	.	.	1a	a-
=11	=11	=11	=11	=11	=11	=11	=11
1.G	Je	0B-	.	1r	.	0b-	-my,
.	.	.	.	[1g	Je	.	.
2F\	n'ay	.	.	.	.	.	.
=12	=12	=12	=12	=12	=12	=12	=12
2E\	pas	1r	.	2g\]	.	0r	.
2D\	.	.	.	2f\	n'ay	.	.
[1C	.	[1c	Je	[1e	pas	.	.
=13	=13	=13	=13	=13	=13	=13	=13
1C]	.	2c\]	.	2e\]	.	1.cc	Je
.	.	2B-\	n'ay	2d\	cau-	.	.
[1F	cau-	[1A	pas	[1c	-se	.	.
.	.	.	.	.	.	2b-\	n'ay
=14	=14	=14	=14	=14	=14	=14	=14
2F\]	.	2A/]	.	2c\]	.	1a	pas
2E\	.	2G/	cau-	2c\	de	.	.
2D\	-se	2F/	.	4f\	ri-	2.a/	cau-
.	.	.	.	4e\	.	.	.
2E\	de	2G/	.	4d\	.	.	.
.	.	.	.	4c\	.	4g/	.
=15	=15	=15	=15	=15	=15	=15	=15
2D\	ri-	2A/	-se	1d	.	2f/	.
2GG/	-re.	2B-\	de	.	.	2g/	.
2r	.	2A/	ri-	1d	-re.	2a/	-se
2GG/	cau-	2G/	.	.	.	2b-\	de
=16	=16	=16	=16	=16	=16	=16	=16
2D\	-se	2F/	.	4f\	ri-	2a/	ri-
.	.	.	.	4e\	.	.	.
2E-i\	de	2G/	.	4d\	.	1g	.
.	.	.	.	4c\	.	.	.
1D	ri-	1A	-re.	1d	-re.	.	.
.	.	.	.	.	.	2f#i/	.
=17	=17	=17	=17	=17	=17	=17	=17
2BB-/	-re.	1G	Je	2r	.	1g	-re.
2.C/	ri-	.	.	2.e-\	ri-	.	.
.	.	1G	l'a-	.	.	1r	.
4D\	.	.	.	4d\	.	.	.
[2E-i\	.	.	.	2B-\	.	.	.
=18	=18	=18	=18	=18	=18	=18	=18
2E-i\]	.	1F	-voye	2c\	.	0r	.
2D\	.	.	.	2d\	.	.	.
1E-i	-re.	[1B-	sur	1G	-re.	.	.
=19	=19	=19	=19	=19	=19	=19	=19
0F	Je	2B-i\]	.	1c	Je	0r	.
.	.	4A/	tous	.	.	.	.
.	.	4G/	.	.	.	.	.
.	.	1A	choi-	1c	l'a-	.	.
=20	=20	=20	=20	=20	=20	=20	=20
1G	.	1B-	-si,	1B-	-voye	0r	.
1A	l'a-	[1c	sur	[1e-i	sur	.	.
=21	=21	=21	=21	=21	=21	=21	=21
0F	-voye	2c\]	.	2e-i\]	.	0r	.
.	.	2B-\	.	4d\	tous	.	.
.	.	.	.	4c\	.	.	.
.	.	1A	.	1d	choi-	.	.
=22	=22	=22	=22	=22	=22	=22	=22
0E-i	sur	1B-	tous	0e-i	-si,	1g	Je
.	.	1c	.	.	.	1g	l'a-
=23	=23	=23	=23	=23	=23	=23	=23
1D	tous	1.d	choi-	[0f	.	1f	-voye
1BB-	choi-	.	.	.	.	[1b-	sur
.	.	4c\	.	.	.	.	.
.	.	4B-\	.	.	.	.	.
=24	=24	=24	=24	=24	=24	=24	=24
0F	-si,	0c	.	0f]	.	2b-\]	.
.	.	.	.	.	.	4a/	tous
.	.	.	.	.	.	4g/	.
.	.	.	.	.	.	1a	choi-
=25	=25	=25	=25	=25	=25	=25	=25
1.G	Vray	0B-	-si,	1r	.	0b-	-si,
.	.	.	.	[1g	Vray	.	.
2F\	dieu	.	.	.	.	.	.
=26	=26	=26	=26	=26	=26	=26	=26
2E\	qu'en	1r	.	2g\]	.	0r	.
2D\	vou-	.	.	2f\	dieu	.	.
[1C	-lez	[1c	Vray	[1e	qu'en	.	.
=27	=27	=27	=27	=27	=27	=27	=27
1C]	.	2c\]	.	2e\]	.	1.cc	Vray
.	.	2B-\	dieu	2d\	vou-	.	.
[1F	qu'en	[1A	qu'en	[1c	-lez	.	.
.	.	.	.	.	.	2b-\	dieu
=28	=28	=28	=28	=28	=28	=28	=28
!	!	!LO:TX:Y=47:t=-	!	!	!	!	!
2F\]	.	2A/]	.	2c\]	.	1.a	qu'en
2E\	vou-	2G/	vou	2c\	vous	.	.
2D\	-lez	2F/	qu'en	4f\	di-	.	.
.	.	.	.	4e\	.	.	.
2E\	vous	2G/	vou-	4d\	.	2g/	vou
.	.	.	.	4c\	.	.	.
=29	=29	=29	=29	=29	=29	=29	=29
!	!	!	!	!	!	!LO:TX:Y=47:t=-	!
2D\	di-	2A/	-lez	1d	.	2f/	qu'en
2GG/	-re,	2B-\	vous	.	.	2g/	vou-
2r	.	2A/	di-	1d	-re,	2a/	-lez
2GG/	vou-	2G/	.	.	.	2b-\	vous
=30	=30	=30	=30	=30	=30	=30	=30
1D	-lez	1F	.	2.f\	qu'en	1a	di-
.	.	.	.	4e\	vou-	.	.
1E-i	vous	1G	.	2d\	-lez	[1g	.
.	.	.	.	2c\	vous	.	.
=31	=31	=31	=31	=31	=31	=31	=31
0D	di-	0A	.	0d	di-	2g/]	.
.	.	.	.	.	.	4f#i/	.
.	.	.	.	.	.	4e/	.
.	.	.	.	.	.	1f#i	.
=32	=32	=32	=32	=32	=32	=32	=32
1GG	-re,	0G	-re,	[0d	-re,	0g	-re,
1r	.	.	.	.	.	.	.
=33	=33	=33	=33	=33	=33	=33	=33
1.G	Il	0r	.	0d]	.	0r	.
4A\	m'a	.	.	.	.	.	.
4B-\	.	.	.	.	.	.	.
=34	=34	=34	=34	=34	=34	=34	=34
1.A	voit	0r	.	1r	.	0r	.
.	.	.	.	[1c	Il	.	.
4G\	ju-	.	.	.	.	.	.
4F\	.	.	.	.	.	.	.
=35	=35	=35	=35	=35	=35	=35	=35
2E\	-r&eacute;	1.G	Il	1c]	.	0r	.
2D\	.	.	.	.	.	.	.
1E	sa	.	.	1c	m'a	.	.
.	.	2G/	m'a	.	.	.	.
=36	=36	=36	=36	=36	=36	=36	=36
0D	foy,	1.A	voit	2d\	voit	0r	.
.	.	.	.	4D/	ju-	.	.
.	.	.	.	4E/	.	.	.
.	.	.	.	4F/	.	.	.
.	.	.	.	4G/	.	.	.
.	.	4G/	ju-	4A/	.	.	.
.	.	4F/	.	4B-\	.	.	.
=37	=37	=37	=37	=37	=37	=37	=37
0r	.	2E/	-r&eacute;	2c\	-r&eacute;	1.g	Il
.	.	2D/	sa	1d	sa	.	.
.	.	1E	foy,	.	.	.	.
.	.	.	.	2c#i\	.	2g/	m'a
=38	=38	=38	=38	=38	=38	=38	=38
0r	.	2.D/	ju-	0d	foy,	1.a	voit
.	.	4E/	.	.	.	.	.
.	.	4F/	.	.	.	.	.
.	.	4G/	.	.	.	.	.
.	.	4A/	.	.	.	4g/	ju-
.	.	4B-\	.	.	.	4f/	.
=39	=39	=39	=39	=39	=39	=39	=39
1AA	sa	2c\	-r&eacute;	0r	.	2e/	-r&eacute;
.	.	1d	sa	.	.	2d/	.
1AA	foy,	.	.	.	.	1e	sa
.	.	2c#i\	.	.	.	.	.
=40	=40	=40	=40	=40	=40	=40	=40
2r	.	1.d	foy,	0r	.	0d	foy,
2.BB-/	De	.	.	.	.	.	.
4C/	.	.	.	.	.	.	.
4D\	.	4c\	ju-	.	.	.	.
4E\	.	4B-\	.	.	.	.	.
=41	=41	=41	=41	=41	=41	=41	=41
2F\	.	2A/	-r&eacute;	1.c	De	0r	.
1G	n'a	2G/	.	.	.	.	.
.	.	1A	sa	.	.	.	.
2F\	.	.	.	4B-\	n'a	.	.
.	.	.	.	4A/	.	.	.
=42	=42	=42	=42	=42	=42	=42	=42
1G	voir	1G	foy,	2e\	voir	1.g	De
.	.	.	.	1d	aul-	.	.
1E	aul-	1r	.	.	.	.	.
.	.	.	.	2c\	.	2g/	n'a
=43	=43	=43	=43	=43	=43	=43	=43
2D\	-tre	2r	.	2.f\	.	1.a	voir
1F	.	2D/	De	.	.	.	.
.	.	.	.	4e\	-tre	.	.
.	.	2F/	n'a	1c	que	.	.
2E\	.	2G/	voir	.	.	2g/	aul-
=44	=44	=44	=44	=44	=44	=44	=44
1D	que	2A/	aul-	1d	moy,	1f	-tre
.	.	2B-\	-tre	.	.	.	.
1AA	moy,	1c	que	2r	.	1e	que
.	.	.	.	2c\	aul-	.	.
=45	=45	=45	=45	=45	=45	=45	=45
2r	.	2B-\	moy,	2G/	.	2d/	moy,
1FF	aul-	1A	.	1c	.	1f	.
2GG/	.	4G/	aul-	2B-\	.	4e/	aul-
.	.	4F/	.	.	.	4d/	.
=46	=46	=46	=46	=46	=46	=46	=46
2AA/	-tre	2E/	-tre	2A/	-tre	2c/	-tre
2BB-/	que	2D/	que	2G/	que	1d	que
1AA	moy,	1E	.	1A	moy,	.	.
.	.	.	.	.	.	2c#i/	.
=47	=47	=47	=47	=47	=47	=47	=47
1.BB-	Mor-	0D	moy,	1r	.	0d	moy,
.	.	.	.	[1F	Mor-	.	.
2BB-/	-te	.	.	.	.	.	.
=48	=48	=48	=48	=48	=48	=48	=48
1BB-	suis	0r	.	2F/]	.	0r	.
.	.	.	.	2F/	-te	.	.
1D	si	.	.	2.F/	suis	.	.
.	.	.	.	4G/	.	.	.
=49	=49	=49	=49	=49	=49	=49	=49
2.C/	je	0r	.	4A/	.	0r	.
.	.	.	.	4B-\	.	.	.
.	.	.	.	1c	.	.	.
4BB-/	.	.	.	.	.	.	.
2AA/	.	.	.	.	.	.	.
2GG/	ne	.	.	2B-\	si	.	.
=50	=50	=50	=50	=50	=50	=50	=50
1AA	l'ay	0r	.	4c\	je	0r	.
.	.	.	.	4B-\	.	.	.
.	.	.	.	4A/	.	.	.
.	.	.	.	4G/	.	.	.
1AA	si	.	.	2G/	.	.	.
.	.	.	.	2F#i/	ne	.	.
=51	=51	=51	=51	=51	=51	=51	=51
2GG/	je	1.B-	Mor-	1G	l'ay	0r	.
2.G\	.	.	.	.	.	.	.
.	.	.	.	1r	.	.	.
4F\	.	.	.	.	.	.	.
[2E-\	.	2B-\	-te	.	.	.	.
=52	=52	=52	=52	=52	=52	=52	=52
2E-\]	.	1B-	suis	1r	.	1.b-	Mor-
4D\	ne	.	.	.	.	.	.
4C/	.	.	.	.	.	.	.
1BB-	l'ay	[1d	si	2F/	Mor-	.	.
.	.	.	.	[2G/	.	2b-\	-te
=53	=53	=53	=53	=53	=53	=53	=53
1GG	si	2d\]	.	2G/]	.	1b-	suis
.	.	1B-	je	1D	-te	.	.
4BB-/	je	.	.	.	.	1dd	si
4C/	.	.	.	.	.	.	.
4D\	ne	4A/	ne	[2F/	si	.	.
4E\	.	4G/	.	.	.	.	.
=54	=54	=54	=54	=54	=54	=54	=54
1F	l'ay	1A	l'ay	4F/]	.	2.cc\	je
.	.	.	.	4G/	.	.	.
.	.	.	.	4A/	.	.	.
.	.	.	.	4B-\	.	4b-\	.
2r	.	1r	.	2.c\	je	2a/	.
[2C/	qu'en	.	.	.	.	2g/	ne
.	.	.	.	4B-\	.	.	.
=55	=55	=55	=55	=55	=55	=55	=55
4C/]	.	1r	.	4A/	ne	1a	l'ay
4BB-/	vou-	.	.	4G/	.	.	.
1AA	-lez-	.	.	2c\	l'ay	.	.
.	.	2c\	qu'en	2F/	qu'en	1r	.
2GG/	-vous	2B-\	vou-	2G/	vou-	.	.
=56	=56	=56	=56	=56	=56	=56	=56
2FF/	di-	2A/	-lez	2A/	-lez-	2cc\	qu'en
2GG/	-re,	2G/	vous,	2D/	-vous,	2b-\	vou-
2r	.	2c\	qu'en	2F/	qu'en	2a/	-lez
2GG/	qu'en	2B-\	vou-	2G/	vou-	2g/	vous,
=57	=57	=57	=57	=57	=57	=57	=57
2FF/	.	2A/	-lez-	2A/	-lez	2cc\	qu'en
2GG/	vou-	2G/	-vous,	2.d\	di-	2b-\	vou-
2D\	-lez-	2F/	qu'en	.	.	2a/	-lez-
.	.	.	.	4c\	.	.	.
2E-i\	-vous	2G/	vou-	2c\	.	2g/	-vous,
=58	=58	=58	=58	=58	=58	=58	=58
2D\	qu'en	2A/	-lez	1d	-re,	2f/	qu'en
2GG/	vou-	2B-\	vous	.	.	2g/	vou-
2FF/	-lez-	2A/	di-	1r	.	2a/	-lez
2GG/	-vous,	[2G/	.	.	.	2b-\	vous
=59	=59	=59	=59	=59	=59	=59	=59
1D	di-	2G/]	.	1d	di-	1a	di-
.	.	2F#i/	.	.	.	.	.
2GG/	-re,	1G	-re,	[1B-	-re,	1g	-re,
2r	.	.	.	.	.	.	.
=60	=60	=60	=60	=60	=60	=60	=60
2G\	dire,	0r	.	1B-]	.	0r	.
4G\	q.	.	.	.	.	.	.
4F\	v.	.	.	.	.	.	.
4E\	l.	.	.	2.c\	qu'en	.	.
4D\	v.	.	.	.	.	.	.
[2C/	donc	.	.	.	.	.	.
.	.	.	.	4B-\	vou-	.	.
=61	=61	=61	=61	=61	=61	=61	=61
2C/]	.	0r	.	2A/	-lez-	0r	.
2.E-i\	q.	.	.	2G/	-vous,	.	.
.	.	.	.	4c\	q.	.	.
4D\	v.	.	.	4B-\	v.	.	.
4C/	l.	.	.	4A/	l.	.	.
4BB-/	v.	.	.	4G/	v.	.	.
=62	=62	=62	=62	=62	=62	=62	=62
2AA/	donc	0r	.	2F/	donc	0r	.
2GG/	di-	.	.	2G/	di-	.	.
1AA	.	.	.	2G/	-re	.	.
.	.	.	.	2F#i/	de	.	.
=63	=63	=63	=63	=63	=63	=63	=63
1GG	-re	1r	.	1G	moy?	0r	.
[1G	Mor-	[1B-	Mor-	1r	.	.	.
=64	=64	=64	=64	=64	=64	=64	=64
1G]	.	2B-\]	.	0d	Mor-	1r	.
.	.	2B-\	-te	.	.	.	.
1G	-te	1B-	suis	.	.	[1b-	Mor-
=65	=65	=65	=65	=65	=65	=65	=65
1G	suis	1.d	si	1B-	-te	2b-\]	.
.	.	.	.	.	.	2b-\	-te
1r	.	.	.	[1G	suis	1b-	suis
.	.	[2B-\	je	.	.	.	.
=66	=66	=66	=66	=66	=66	=66	=66
1r	.	2B-\]	.	1G]	.	1dd	si
.	.	4A/	ne	.	.	.	.
.	.	4G/	.	.	.	.	.
[1F	Mor-	1A	l'ay,	1r	.	2.cc\	je
.	.	.	.	.	.	4b-\	.
=67	=67	=67	=67	=67	=67	=67	=67
2F\]	.	1r	.	0r	.	2a/	.
2E\	-te	.	.	.	.	2g/	ne
[1F	suis	2.c\	q.	.	.	1a	l'ay,
.	.	4B-\	v.	.	.	.	.
=68	=68	=68	=68	=68	=68	=68	=68
2F\]	.	2A/	l.	0r	.	2cc\	qu'en
2G\	si	2G/	v.	.	.	2b-\	vou-
2F\	je	2r	.	.	.	2a/	-lez
4E\	ne	4c\	q.	.	.	2g/	vous
4D\	.	4B-\	v.	.	.	.	.
=69	=69	=69	=69	=69	=69	=69	=69
1C	l'ay,	4A/	l.	4g\	q.	4cc\	q.
.	.	4G/	v.	4f\	v.	4b-\	v.
.	.	4c\	q.	4e\	l.	4a/	l.
.	.	4B-\	v.	4d\	v.	4g/	v.
2r	.	4A/	l.	2e\	donc	4cc\	q.
.	.	4G/	v.	.	.	4b-\	v.
[2D\	qu'en	4F/	q.	[2f\	di-	4a/	l.
.	.	4G/	v.	.	.	4g/	v.
=70	=70	=70	=70	=70	=70	=70	=70
2D\]	.	2A/	l.	4f\]	.	2f/	donc
.	.	.	.	4d\	.	.	.
2GG/	vou-	2B-\	v.	1d	-re	2g/	di-
1D	-lez	1A	de	.	.	2g/	-re
.	.	.	.	2d\	de	2f#i/	de
=71	=71	=71	=71	=71	=71	=71	=71
4E-i\	q.	[0G/l	moy?	2B-\	moy?	[0gl	moy?
4D\	v.	.	.	.	.	.	.
4C/	l.	.	.	4e-i\	q.	.	.
4BB-/	v.	.	.	4d\	v.	.	.
4E-i\	q.	.	.	4c\	l.	.	.
4D\	v.	.	.	4B-\	v.	.	.
4C/	l.	.	.	4e-i\	q.	.	.
4BB-/	v.	.	.	4d\	v.	.	.
=72	=72	=72	=72	=72	=72	=72	=72
2C/	donc	0G/]	.	4c\	l.	0g]	.
.	.	.	.	4B-\	v.	.	.
2C/	de	.	.	2c\	de	.	.
1GGl	moy?	.	.	1dl	moy?	.	.
==	==	==	==	==	==	==	==
*-	*-	*-	*-	*-	*-	*-	*-
!!!RDF**kern: l=long note in original notation
!!!RDF**kern: i=editorial accidental
!!!ENC:	Jesse Rodin 8/6/2013
!!!END:	2013/08/06/
!!!EED:	Jesse Rodin
!!!EEV:	2013/08/06/
!!!ONB:	Translated from MusicXML and edited on 2013/08/06/ by Craig Sapp
!!muse2ps: C^@{COA}^i2I150v85,85,85,130Q16
